!!!COM: Corelli, Arcangelo
!!!OTL: Sonate a tre [in g]
!!!XEN: Trio Sonata Opus 1, No. 10
!!!OPS: Opus 1
!!!ONM: No. 10
!!!OMV: Movement 5.
!!!YEC: Copyright 1994, Center for Computer Assisted Research in the Humanities
!!!YEM: Rights to all derivative electronic formats reserved.
!!!YEM: Refer to licensing agreement for further details.
!! For the following instrumentation: Violino I & II, Violone/Archlute,
!!    and Organo.
!!!ONB1: Source gives first time signature as sign of imperfection 
!!!ONB2: ("common time") preceding 3/8.  
!! Allegro.
**kern	**kern	**kern	**kern
*ICklav	*ICstr	*ICstr	*ICstr
*Iorgan	*Icello	*Ivioln	*Ivioln
*	*Iarchl	*	*
!Organo	!Violone	!Violin 2	!Violin 1
!	! or	!	!
!	!Archlute	!	!
**kern	**kern	**kern	**kern
*Organo	*Violone	*Violino 2	*Violino 1
*>[A,A]	*>[A,A]	*>[A,A]	*>[A,A]
*>A	*>A	*>A	*>A
*clefF4	*clefF4	*clefG2	*clefG2
*k[b-]	*k[b-]	*k[b-]	*k[b-]
*g:	*g:	*g:	*g:
*M3/8	*M3/8	*M3/8	*M3/8
*MM60	*MM60	*MM60	*MM60
=1-	=1-	=1-	=1-
4GG/	4.r	4.r	16g\LL
.	.	.	16a\
.	.	.	16b-\
.	.	.	16cc\J
8GG/	.	.	8dd\J
=2	=2	=2	=2
4C/	4.r	4.r	4ee-\
8D\	.	.	8dd\
=3	=3	=3	=3
4E-\	4.r	4.r	16cc\LL
.	.	.	16b-\
.	.	.	16a\
.	.	.	16b-\J
8E-\	.	.	8cc\J
=4	=4	=4	=4
4D\	4.r	4.r	4dd\
8E-\	.	.	8g/
=5	=5	=5	=5
4D\	4.r	16dd\LL	16ff\LL
.	.	16ee\	16ee\
.	.	16ff\	16dd\
.	.	16gg\J	16ee\J
8D\	.	8aa\J	8ff\J
=6	=6	=6	=6
4GG/	4.r	4bb-\	4gg\
8D\	.	8aa\	8ff\
=7	=7	=7	=7
4G\	4.r	16gg\LL	16bb-\LL
.	.	16ff\	16aa\
.	.	16ee\	16gg\
.	.	16ff\J	16aa\J
8BB-/	.	8gg\J	8bb-\J
=8	=8	=8	=8
4AA/	4.r	4aa\	4cc#\
8FF/	.	8dd\	8dd\
=9	=9	=9	=9
4GG/	16GG/LL	4bb-\	4dd\
.	16AA/	.	.
.	16BB-/	.	.
.	16C/J	.	.
8D\	8D/J	8ff#\	8dd\
=10	=10	=10	=10
4E-\	4E-\	4gg\	4cc\
8D\	8D\	8f#/	8dd\
=11	=11	=11	=11
4C/	16C/LL	4g/	(16ee-\LL
.	16BB-/	.	16dd\)
.	16AA/	.	(16cc\
.	16BB-/J	.	16dd\J)
8C/	8C/J	8g/	8b-\J
=12	=12	=12	=12
4D\	4D\	4f#/	4a/
8GG/	8GG/	8g/	8g/
=13	=13	=13	=13
4G\	4G\	4b-\	4ee-\
8G\	8G\	8b-\	8ee-\
=14	=14	=14	=14
4F\	4F\	16a/LL	4dd\
.	.	16g/	.
.	.	16a/	.
.	.	16b-/J	.
8F\	8F\	8a/J	8dd\
=15	=15	=15	=15
4E-\	4E-\	4g/	(16cc\LL
.	.	.	16b-\)
.	.	.	(16a\
.	.	.	16b-\J)
8E-\	8E-\	8a/	8cc\J
=16	=16	=16	=16
4.D\	4.D\	4.f#/	4.dd\
=17	=17	=17	=17
4D\	4D\	4f#/	16dd\LL
.	.	.	16cc\
.	.	.	16b-\
.	.	.	16a\J
8r	8r	8b-\	8g\J
=18	=18	=18	=18
4C/	4C/	4g/	16ee-\LL
.	.	.	16dd\
.	.	.	16cc\
.	.	.	16b-\J
8r	8r	8cc\	8a\J
=19	=19	=19	=19
4F\	4F\	4a/	16ff\LL
.	.	.	16ee-\
.	.	.	16dd\
.	.	.	16cc\J
8G\	8G\	8dd\	8b-\J
=20	=20	=20	=20
4E-\	4E-\	16ee-\LL	4gg\
.	.	16dd\	.
.	.	16cc\	.
.	.	16b-\J	.
8F\	8F\	8a\J	8aa\
=21	=21	=21	=21
4D\	4D\	16dd\LL	4ff\
.	.	16cc\	.
.	.	16b-\	.
.	.	16a\J	.
8E-\	8E-\	8g\J	8gg\
=22	=22	=22	=22
4C/	4C/	16cc/LL	4ee-\
.	.	16b-/	.
.	.	16a/	.
.	.	16g/J	.
8D\	8D\	8f/J	8ff\
=23	=23	=23	=23
8BB-/L	8BB-/L	16b-/LL	16dd\LL
.	.	16a/	16cc\
8E-/	8E-/	16g/	16b-\
.	.	16a/J	16cc\J
8BB-/J	8BB-/J	8b-/J	8dd\J
=24	=24	=24	=24
4F\	4F\	4a/	4cc\
8BB-/	8BB-/	8b-\	8b-\
=25	=25	=25	=25
4C/	4C/	(16ee-\LL	(4gg\
.	.	16dd\	.
.	.	16cc\	.
.	.	16b-\J	.
8F\	8F\	8a\J)	8aa\)
=26	=26	=26	=26
4D\	4D\	(16dd\LL	(4ff\
.	.	16cc\	.
.	.	16b-\	.
.	.	16a\J	.
8E-\	8E-\	8g\J)	8gg\)
=27	=27	=27	=27
4C/	4C/	(16cc/LL	(4ee-\
.	.	16b-/	.
.	.	16a/	.
.	.	16g/J	.
8D\	8D\	8f/J)	8ff\)
=28	=28	=28	=28
8BB-/L	8BB-/L	(16b-/LL	(16dd\LL
.	.	16a/	16cc\
8E-/	8E-/	16g/	16b-\
.	.	16a/J	16cc\J
8BB-/J	8BB-/J	8b-/J)	8dd\J)
=29	=29	=29	=29
4F\	4F\	4a/	4cc\
8BB-/	8BB-/	8b-\	8b-\
=30	=30	=30	=30
4BB-/	4BB-/	4.r	(16b-\LL
.	.	.	16cc\
.	.	.	16dd\
.	.	.	16ee\J
8r	8r	.	8ff\J)
=31	=31	=31	=31
4.AA/	4.AA/	16f/LL	4f/
.	.	16g/	.
.	.	16a/	.
.	.	16b/J	.
.	.	8cc/J	8r
=32	=32	=32	=32
4.C/	4.C/	4c/	(16cc\LL
.	.	.	16dd\
.	.	.	16ee-\
.	.	.	16ff\J
.	.	8r	8gg\J)
=33	=33	=33	=33
4.BB-/	4.BB-/	16g\LL	4g/
.	.	16a\	.
.	.	16b-\	.
.	.	16cc\J	.
.	.	8dd\J	8r
=34	=34	=34	=34
4D\	4D\	16ff\LL	(16dd\LL
.	.	16ee\	16ee\
.	.	16dd\	16ff\
.	.	16ee\J	16gg\J
8D\	8D\	8ff\J	8aa\J)
=35	=35	=35	=35
4GG/	4GG/	4gg\	4bb-\
8D\	8D\	8ff\	8aa\
=36	=36	=36	=36
4G\	4G\	16bb-\LL	(16gg\LL
.	.	16aa\	16ff\
.	.	16gg\	16ee\
.	.	16aa\J	16ff\J
8BB-/	8BB-/	8bb-\J	8gg\J)
=37	=37	=37	=37
4AA/	4AA/	4cc#\	4aa\
8FF/	8FF/	8dd\	8dd\
=38	=38	=38	=38
4GG/	4GG/	(16bb-\LL	4ddd\
.	.	16aa\	.
.	.	16gg\	.
.	.	16ff\J	.
8C/	8C/	8ee\J)	8r
=39	=39	=39	=39
4AA/	4AA/	(16aa\LL	4ccc\
.	.	16gg\	.
.	.	16ff#\	.
.	.	16ee\J	.
8BB-/	8BB-/	8dd\J)	8r
=40	=40	=40	=40
8GG/L	8GG/L	(16gg\LL	(16bb-\LL
.	.	16ff#\	16aa\
8C/	8C/	16ee\	16gg\
.	.	16ff#\J	16aa\J
8GG/J	8GG/J	8gg\J)	8bb-\J)
=41	=41	=41	=41
4D\	4D\	4ff#\	4aa\
8GG/	8GG/	8gg\	8gg\
=42	=42	=42	=42
4G\	8G/L	4bb-\	4gg\
.	16GG/L	.	.
.	16AA/	.	.
8GG/	16BB-/	8r	8r
.	16C/JJ	.	.
=43	=43	=43	=43
4D\	8D\L	4aa\	4ff\
.	16D\L	.	.
.	16E-\	.	.
8D\	16F\	8r	8r
.	16D\JJ	.	.
=44	=44	=44	=44
8E-\	8E-\L	8.gg\L	8.ee-\L
4C/	16C\L	.	.
.	16D\	16ff\kk	16dd\kk
.	16E-\	8ee-\J	8cc\J
.	16F\JJ	.	.
=45	=45	=45	=45
4G\	4G\	4dd\	4b\
8E-\	8E-\	8g/	8gg\
=46	=46	=46	=46
4F\	4F\	4a/	4ff\
8G\	8G\	8b\	8ff\
=47	=47	=47	=47
8A-\L	8A-\L	(16cc\LL	(16ee-\LL
.	.	16dd\)	16ff\)
8E-\	8E-\	(16ee-\	(16gg\
.	.	16dd\J)	16ff\J)
8F\J	8F\J	8cc\J	8ee-\J
=48	=48	=48	=48
4G\	4G\	4b\	4dd\
8C/	8C/	8cc\	8cc\
=49	=49	=49	=49
4C/	16C\LL	4ee-\	4gg\
.	16D\	.	.
.	16E-\	.	.
.	16F\J	.	.
8G\	8G\J	8dd\	8gg\
=50	=50	=50	=50
4A-\	4A-\	4cc\	4ff\
8G\	8G\	8b\	8gg\
=51	=51	=51	=51
4F\	16F\LL	4cc\	(16aa-\LL
.	16E-\	.	16gg\)
.	16D\	.	(16ff\
.	16E-\J	.	16gg\J)
8F\	8F\J	8cc\	8ee-\J
=52	=52	=52	=52
4G\	4G\	4b\	4dd\
8C/	8C/	8cc\	8cc\
=53	=53	=53	=53
4.r	4.r	16g\LL	(16b-/LL
.	.	16a\	16a/
.	.	16b-\	16g/
.	.	16cc\J	16a/J
.	.	8dd\J	8b-/J)
=54	=54	=54	=54
4.r	4.r	4ee-\	4cc\
.	.	8dd\	8b-\
=55	=55	=55	=55
4.r	4.r	(16cc\LL	(16ee-\LL
.	.	16b-\	16dd\
.	.	16a\	16cc\
.	.	16b-\J	16dd\J
.	.	8cc\J)	8ee-\J)
=56	=56	=56	=56
4.r	4.r	4dd\	4f#/
.	.	8g/	8g/
=57	=57	=57	=57
4G\	8G/L	4gg\	4bb-\
.	16GG/L	.	.
.	16AA/	.	.
8GG/	16BB-/	8r	8r
.	16C/JJ	.	.
=58	=58	=58	=58
4D\	8D\L	4ff\	4aa\
.	16D\L	.	.
.	16E\	.	.
8D\	16F\	8r	8r
.	16D\JJ	.	.
=59	=59	=59	=59
4G\	8G\L	4ee\	4gg\
.	16G\L	.	.
.	16A\	.	.
8G\	16B-\	8dd\	8ff\
.	16G\JJ	.	.
=60	=60	=60	=60
4A\	4A\	4cc#\	4ee\
8F\	8F\	8a/	8aa\
=61	=61	=61	=61
4G\	4G\	4b\	4gg\
8A\	8A\	8cc#\	8gg\
=62	=62	=62	=62
8B-\L	8B-\L	(16dd\LL	(16ff\LL
.	.	16ee\)	16gg\)
8F\	8F\	(16ff\	(16aa\
.	.	16ee\J)	16gg\J)
8G\J	8G\J	8dd\J	8ff\J
=63	=63	=63	=63
4A\	4A\	4cc#\	4ee\
8D\	8D\	8dd\	8dd\
=64	=64	=64	=64
4.r	4.r	4.r	(16d/LL
.	.	.	16e/
.	.	.	16f/
.	.	.	16g/J
.	.	.	8a/J)
=65	=65	=65	=65
4.r	4.r	4.r	4b-\
.	.	.	8a/
=66	=66	=66	=66
4.r	4.r	4.r	(16g/LL
.	.	.	16f/
.	.	.	16e/
.	.	.	16f/J
.	.	.	8g/J)
=67	=67	=67	=67
4.r	4.r	4.r	4a/
.	.	.	8d/
=68	=68	=68	=68
4G\	4G\	(16dd\LL	4.r
.	.	16cc\	.
.	.	16b-\	.
.	.	16a\J	.
8r	8r	8g\J)	.
=69	=69	=69	=69
4C/	4C/	4.ee-\	(16gg\LL
.	.	.	16ff\
.	.	.	16ee-\
.	.	.	16dd\J
8r	8r	.	8cc\J)
=70	=70	=70	=70
4F\	4F\	(16cc/LL	4.aa\
.	.	16b-/	.
.	.	16a/	.
.	.	16g/J	.
8r	8r	8f/J)	.
=71	=71	=71	=71
4BB-/	4BB-/	4.dd\	(16ff\LL
.	.	.	16ee-\
.	.	.	16dd\
.	.	.	16cc\J
8r	8r	.	8b-\J)
=72	=72	=72	=72
4E-\	4E-\	(16b-/LL	4.gg\
.	.	16a/	.
.	.	16g/	.
.	.	16f/J	.
8r	8r	8e-/J)	.
=73	=73	=73	=73
4C/	4C/	4.cc\	(16ee-\LL
.	.	.	16dd\
.	.	.	16cc\
.	.	.	16b-\J
8r	8r	.	8a\J)
=74	=74	=74	=74
4GG/	4GG/	(16b-/LL	(16dd\LL
.	.	16cc/	16ee-\
.	.	16b-/	16dd\
.	.	16a/J	16cc\J
8r	8r	8g/J)	8b-\J)
=75	=75	=75	=75
4D\	4D\	4f#/	4a/
8GG/	8GG/	8g/	8g/
=76	=76	=76	=76
4C/	4C/	4.ee-\	(16gg\LL
.	.	.	16ff\
.	.	.	16ee-\
.	.	.	16dd\J
8r	8r	.	8cc\J)
=77	=77	=77	=77
4F\	4F\	(16cc/LL	4.aa\
.	.	16b-/	.
.	.	16a/	.
.	.	16g/J	.
8r	8r	8f/J)	.
=78	=78	=78	=78
4BB-/	4BB-/	4.dd\	(16ff\LL
.	.	.	16ee-\
.	.	.	16dd\
.	.	.	16cc\J
8r	8r	.	8b-\J)
=79	=79	=79	=79
4E-\	4E-\	(16b-/LL	4.gg\
.	.	16a/	.
.	.	16g/	.
.	.	16f/J	.
8r	8r	8e-/J)	.
=80	=80	=80	=80
4C/	4C/	4.cc\	(16ee-\LL
.	.	.	16dd\
.	.	.	16cc\
.	.	.	16b-\J
8r	8r	.	8a\J)
=81	=81	=81	=81
4GG/	4GG/	(16b-/LL	(16dd\LL
.	.	16cc/	16ee-\
.	.	16b-/	16dd\
.	.	16a/J	16cc\J
8r	8r	8g/J)	8b-\J)
=82	=82	=82	=82
4D\	4D\	4f#/	4a/
8GG/	8GG/	8g/	8g/
=83	=83	=83	=83
4.r	4.r	(16b-/LL	(16dd\LL
.	.	16cc/	16ee-\
.	.	16b-/	16dd\
.	.	16a/J	16cc\J
.	.	8g/J)	8b-\J)
=84	=84	=84	=84
4D\	4D\	4f#/	4a/
8GG/	8GG/	8g/	8g/
==	==	==	==
*-	*-	*-	*-
!!!CDT: 1653/2/17/-1713/1/8
!!!OCY: Italia
!!!ODE: Queen Christina Alexandra of Sweden
!!!ODT: 1681//
!!!OPC: Roma; Rome
!!!AGN: trio sonata
!!!AST: baroque, chamber
!!!AMT: simple triple
!!!YOR1: J. Joachim & F. Chrysander (eds.) Les Oeuvre de Arcangelo Corelli
!!!YOR2: London: Augener & Co. 1871
!!!YOY: 1871
!!!AIN: archl cello organ violn
!!!EEV: 1.1
!!!RDT: 1993 September 16
!!!YER: 1994 December 14
!!!EMD: 1996 July 9
!!!YEN: United States of America
!!!EFL: 5/5
!!!ENC: Frances Bennion & Steven Rasmussen
!!!EED: W.B. Hewlett
!!!VTS: 1725658652
